X:1
T:Schottisch  FC  (st02066) ABA
T:Hanny Christen. Bd.II  St. Gallen II, GraubÃ¼nden, Tessin. S.299 (st02066) orig. F,C
T: GraubÃ¼nden. Gla Genua, Sent. S.299-329. Ãœberliefert vermutlich durch Nott Caviezel
O:Switzerland
%%MIDI program 21
P:ABA
R:shottishe
M:2/4
L:1/8
K:F %%MIDI gchordon
[P:A] "F"AB =Bc | a3f | "C7"ag de | ("F"g/f/e/d/)c2 | AB =Bc | a3f | "C7"ag de |1 "_Fine""F"f2zf :|2 "F".f2zg/e/ || [P:B]  [K:C] 
"C"ga c'e | g2 (f/e/d/c/) | "G7"Bd f>e | d3c | Bd f>e | d3d | fa gc | "C"e3g/f/ | eg c'e | 
g2 (f/e/d/c/) | "G7"Bd f>e | d3c | Bd fg | a2gf | "C"ef/e/ "G7"de/d/ | "C"cc c"_>Teil A"z |] 
W:Parts: ABA
% st02066  (Oct 3, 2016)

